X:1
T: Green Grow the Rashes Oh!
C:
R:Strathspey
Q: 128
K:G
M:4/4
L:1/16
|:D2|G4 B3A BG3 G3B|Ae3 e3d eA3 A3B|c3d e3c B3c d3B|A3c B3A GE3 E2D2|
G4 B3A BG3 G3B|Ae3 e3d eA3 A3B|c3d e3c B3c d3B|A3c B3A GE3 E2F2|
G4 g3f gd3 d3g|e4 a3g ae3 e3f|g3a g2e2 dcBA G3B|A3c B3A GE3 E2F2|
G4 g3f gd3 d3g|e4 a3g ae3 e3f|g3a g2e2 dcBA G3B|A3c B3A GE3 E2:|
